icon/lg/adobe-xd.svg

<?xml version="1.0" encoding="UTF-8"?>
<svg viewBox="0 0 256 250" version="1.1" xmlns="http://www.w3.org/2000/svg" preserveAspectRatio="xMidYMid" height="1em" width="1em">
  <g>
    <rect fill="#470137" x="0" y="0" width="256" height="249.6" rx="42.5"/>
    <path d="M134.578133,65.6408853 L102.635424,118.363019 L136.810432,174.348181 C137.029651,174.739874 137.091124,175.200462 136.982304,175.635936 C136.928938,175.821753 136.815106,175.867791 136.640451,175.874581 L136.445508,175.872011 L136.445508,175.872011 L136.209936,175.865615 C136.081979,175.865185 135.938757,175.871696 135.780224,175.897717 L111.140494,175.897136 L111.140494,175.897136 L110.656117,175.890176 C109.327539,175.855153 108.371439,175.665362 107.787509,174.691403 C105.49584,170.226564 103.206084,165.790194 100.91824,161.382293 C98.9130293,157.526824 96.7997573,153.604363 94.578424,149.614912 L93.619808,147.901045 C91.0437582,143.32346 88.4963556,138.686652 85.9776,133.990624 L85.805728,133.990624 C83.5140587,138.571097 81.1383644,143.150699 78.6786453,147.729429 C76.2156267,152.309895 73.782816,156.86085 71.3802133,161.382293 C68.9760391,165.906254 66.5145778,170.399918 63.9958293,174.863285 C63.5909729,175.772518 62.918479,175.962208 61.9805021,175.994256 L61.5911573,176 L61.5911573,176 L38.0640747,176 L37.9623079,176.002835 L37.9623079,176.002835 L37.6257244,176.033532 C37.4389385,176.044408 37.3273781,176.004245 37.2911573,175.721877 C37.2265383,175.303102 37.3183092,174.875192 37.5489707,174.519744 L70.6932373,120.080171 L38.4073067,65.4690133 C38.0640747,65.0130276 38.0067804,64.6409778 38.235424,64.352864 C38.4925019,64.0558021 38.8742056,63.8967743 39.2661547,63.9234347 L63.480224,63.9234347 C64.0082058,63.8946657 64.5360896,63.9823693 65.026048,64.181248 C65.4366522,64.4138741 65.7889492,64.7368699 66.0562667,65.1257813 C68.1171947,69.7059911 70.4069511,74.285504 72.925536,78.86432 C75.44272,83.4447929 77.9901156,87.967104 80.5677227,92.4312533 C83.1437653,96.89632 85.5194596,101.418631 87.6948053,105.998187 L87.8666667,105.998187 C90.1552142,101.30496 92.4736178,96.7254471 94.8218773,92.259648 C97.1671858,87.7945387 99.5713529,83.3007893 102.034379,78.7784 C104.495321,74.2570489 106.871015,69.7633849 109.161461,65.297408 C109.29311,64.8735909 109.529349,64.4897425 109.848395,64.1812587 C110.272399,63.9659767 110.749152,63.8765178 111.222357,63.9234453 L133.719232,63.9234453 C134.165996,63.813171 134.629537,64.0271926 134.835356,64.4387718 C135.022464,64.8129347 134.951168,65.2595589 134.669007,65.5565198 L134.578133,65.6408853 Z M185.048434,178.113476 L183.863552,178.126304 C175.959037,178.24652 168.127061,176.603848 160.936992,173.317707 C154.239007,170.217724 148.639881,165.157461 144.880224,158.806251 C141.088945,152.50951 139.143458,144.664432 139.045081,135.271016 L139.041152,134.505995 C138.976542,126.624105 140.990548,118.864419 144.880224,112.008853 C148.775515,105.219831 154.453013,99.6307005 161.292731,95.842664 L161.881824,95.5224 C169.32245,91.4008 178.309778,89.3400356 188.843808,89.3401067 L189.30471,89.3454773 L189.30471,89.3454773 L189.830392,89.3615893 L189.830392,89.3615893 L190.420854,89.3884427 L190.420854,89.3884427 L191.076096,89.4260373 L191.076096,89.4260373 L192.178393,89.5036413 L192.178393,89.5036413 L193.426292,89.6040213 L193.426292,89.6040213 L194.339115,89.6835947 L194.339115,89.6835947 L194.339115,55.852128 C194.339115,55.052384 194.682869,54.6499947 195.369845,54.6499947 L217.007861,54.6499947 C217.291644,54.609431 217.577967,54.7048189 217.780723,54.9074719 C217.983479,55.1101249 218.079012,55.3963992 218.038592,55.6802027 L218.038592,157.174731 C218.038592,158.879383 218.104255,160.714092 218.23558,162.678859 L218.555825,167.134312 L218.555825,167.134312 L218.725579,169.711157 L218.725579,169.711157 C218.768646,170.441321 218.359445,171.12315 217.694848,171.428608 C212.112545,173.75678 206.298158,175.483792 200.350059,176.580427 C195.299845,177.512577 190.181843,178.025231 185.048434,178.113476 L185.048434,178.113476 Z M194.339072,156.831253 L194.339072,109.948181 C193.410867,109.696725 192.463037,109.524319 191.505739,109.432811 C190.335852,109.315209 189.160685,109.257928 187.984907,109.261195 C183.817558,109.219732 179.699105,110.161067 175.963573,112.008853 C172.325303,113.817427 169.218794,116.539433 166.947947,119.908587 C164.680998,123.224817 163.50876,127.554974 163.431232,132.89906 L163.427115,133.47552 C163.343491,137.219133 163.95487,140.945791 165.23024,144.466453 C166.26813,147.303211 167.908773,149.881192 170.039093,152.02272 C172.078385,153.993041 174.547415,155.462817 177.251595,156.316213 C180.10798,157.241076 183.093514,157.704791 186.095861,157.690588 C187.697952,157.690588 189.186308,157.632704 190.560928,157.518293 C191.657999,157.435609 192.745059,157.254619 193.809056,156.977697 L194.339072,156.831253 Z" fill="#FF61F6"/>
  </g>
</svg>

<svg width="256" height="250" xmlns="http://www.w3.org/2000/svg" preserveAspectRatio="xMidYMid"><rect fill="#470137" width="256" height="249.6" rx="42.5"/><path d="m134.578 65.64-31.943 52.723 34.175 55.985c.22.392.281.852.172 1.288-.053.186-.167.232-.342.239l-.194-.003-.236-.006c-.128 0-.271.006-.43.032h-24.64l-.484-.008c-1.328-.035-2.285-.225-2.868-1.199a3291.718 3291.718 0 0 0-6.87-13.309 469.933 469.933 0 0 0-6.34-11.767l-.958-1.714a782.954 782.954 0 0 1-7.642-13.91h-.172a532.443 532.443 0 0 1-7.127 13.738c-2.463 4.58-4.896 9.132-7.299 13.653a607.72 607.72 0 0 1-7.384 13.481c-.405.91-1.078 1.1-2.015 1.131l-.39.006H38.064l-.102.003-.336.03c-.187.011-.299-.029-.335-.311a1.725 1.725 0 0 1 .258-1.202l33.144-54.44L38.407 65.47c-.343-.456-.4-.828-.172-1.116a1.25 1.25 0 0 1 1.031-.43H63.48a3.59 3.59 0 0 1 1.546.258c.41.233.763.556 1.03.945 2.061 4.58 4.351 9.16 6.87 13.738a736.524 736.524 0 0 0 7.642 13.567 191.963 191.963 0 0 1 7.127 13.567h.172a506.673 506.673 0 0 1 6.955-13.738c2.345-4.465 4.75-8.96 7.212-13.482a620.843 620.843 0 0 0 7.127-13.48c.132-.424.368-.808.687-1.117.424-.215.901-.304 1.374-.258h22.497a.984.984 0 0 1 .95 1.634l-.09.084Zm50.47 112.473-1.184.013a53.208 53.208 0 0 1-22.927-4.808 36.45 36.45 0 0 1-16.057-14.512c-3.791-6.296-5.737-14.142-5.835-23.535l-.004-.765a44.844 44.844 0 0 1 5.84-22.497 42.866 42.866 0 0 1 16.412-16.166l.589-.32c7.44-4.122 16.428-6.183 26.962-6.183l.46.005.526.017.59.026.656.038 1.102.078 1.248.1.913.08V55.852c0-.8.344-1.202 1.03-1.202h21.639a.91.91 0 0 1 1.03 1.03v101.495c0 1.704.066 3.54.198 5.504l.32 4.455.17 2.577a1.775 1.775 0 0 1-1.031 1.718 85.184 85.184 0 0 1-17.345 5.151 93.12 93.12 0 0 1-15.302 1.533Zm9.291-21.282v-46.883a17.035 17.035 0 0 0-2.833-.515 34.25 34.25 0 0 0-3.521-.172c-4.167-.041-8.286.9-12.021 2.748a23.472 23.472 0 0 0-9.016 7.9c-2.267 3.316-3.44 7.646-3.517 12.99l-.004.577a30.284 30.284 0 0 0 1.803 10.99 20.894 20.894 0 0 0 4.81 7.557 18.311 18.311 0 0 0 7.212 4.293 28.277 28.277 0 0 0 8.844 1.375c1.602 0 3.09-.058 4.465-.173a18.38 18.38 0 0 0 3.248-.54l.53-.147Z" fill="#FF61F6"/></svg>
